img/svg/bg/cloud.svg

<svg width="95" height="95" viewBox="0 0 95 95" fill="none" xmlns="http://www.w3.org/2000/svg">
<g clip-path="url(#clip0)">
<path d="M57.2219 16.5615C71.0919 16.5615 82.4602 27.3282 83.4102 40.9449C89.7119 42.4332 94.3669 48.0699 94.3669 54.8149C94.3669 62.6999 87.9702 69.0649 80.1169 69.0649C79.7052 69.0649 79.2935 69.0332 78.8819 69.0015C75.5252 72.2949 70.9335 74.3215 65.8352 74.3215C63.0802 74.3215 60.4835 73.7199 58.1402 72.6432C54.8785 75.4299 50.6352 77.1399 46.0119 77.1399C39.6152 77.1399 34.0102 73.9099 30.6535 69.0332C25.0802 68.9382 20.1085 66.3099 16.8785 62.2565C15.6435 62.6999 14.3135 62.9215 12.9202 62.9215C6.30186 62.9849 0.950195 57.6332 0.950195 51.0149C0.950195 44.4282 6.30186 39.0765 12.8885 39.0765C14.2819 39.0765 15.6119 39.3299 16.8469 39.7415C20.1402 35.6249 25.2385 32.9649 30.9385 32.9649C31.5719 32.9649 32.2052 32.9965 32.8069 33.0599C36.7019 23.4015 46.1702 16.5615 57.2219 16.5615Z" stroke="#C8C8C8" stroke-width="3" stroke-miterlimit="10"/>
</g>
<defs>
<clipPath id="clip0">
<rect width="95" height="95" fill="white"/>
</clipPath>
</defs>
</svg>

<svg width="95" height="95" viewBox="0 0 95 95" fill="none" xmlns="http://www.w3.org/2000/svg"><g clip-path="url(#clip0)"><path d="M57.222 16.561c13.87 0 25.238 10.767 26.188 24.384a14.232 14.232 0 0110.957 13.87c0 7.885-6.397 14.25-14.25 14.25-.412 0-.824-.032-1.235-.064a18.539 18.539 0 01-13.047 5.32c-2.755 0-5.351-.601-7.695-1.678-3.261 2.787-7.505 4.497-12.128 4.497-6.397 0-12.002-3.23-15.358-8.107a17.984 17.984 0 01-13.776-6.776 11.67 11.67 0 01-3.958.665C6.302 62.985.95 57.633.95 51.014c0-6.587 5.352-11.938 11.939-11.938 1.393 0 2.723.253 3.958.665a18.033 18.033 0 0115.96-6.682C36.702 23.4 46.17 16.56 57.222 16.56z" stroke="#C8C8C8" stroke-width="3" stroke-miterlimit="10"/></g><defs><clipPath id="clip0"><path fill="#fff" d="M0 0h95v95H0z"/></clipPath></defs></svg>
